X:45
T:Vulcans Cave
O:No 45 Wm Clarke MS  Feltwell, Norfolk
N:Bar 22 should be same rhythm as prceeding bar.
N:Cotton Lords of Preston/King of the canibal isles
I:abc2nwc
M:6/8
L:1/8
K:D
A|f2e d2c|c2B A2F|GFG E2A|F2G A2A|B2G d2B|A2F B2c|cde ABc|(d3d2):|
|:A|f2f f2e|f2f f2e|f2f a2f|efe e2c|
d2d d2c|d2d d2c|dcd e2d|cBc ABc|d3cBA|BAB ABc|
d3cBA|B2c d2f|e2"^*"d e2f|e2d e2f|a2AABc|d3-d2:||:

